X: 3
T: The Haunted House
R: jig
M: 6/8
L: 1/8
K: Gmaj
G^FG A^GA | BGE EDE | GB/c/d egd | ege edB |G2 G A2 A | BGE EDE | GBd e/f/ge | dBA G2 :|GB/c/d egd | ege edB | GBd ded | ded dBA |[1 GBd e2 d | ege edB | GB/c/d ege | dBA G2 :|[2 G2 G A^GA | BGE E2 D | GBd e2 g | dBA G2 |]


Tune 1098	Setting 29732

